X:1
T:Title
%%score ( 1 2 ) 3
L:1/8
Q:1/4=95
M:4/4
K:Eb
V:1 treble nm="Strings 1, Soprano"
V:2 treble 
V:3 bass nm="Choir Pad, Our Infant Savior"
V:1
 A2 (3AGF E2 C2 | [CE]2 [B,C=E]2 [A,CF]4 | F2 (3FGA B2 F2 | [B,EG]2 [B,DA]2 [_DEB]4 | %4
w: By~Alfred~S.~Hartzell * * * * *||||
 [CEc]2 (3cBA [C=Ec]2 [CEG]2 | [CFA]2 (3AGF [=B,FA]4 | [CE]2 (3EDE [DF]2 [Dc]2 | [_DB]4 [CA]4 | %8
w: ||||
 c2 (3cBA G2 C2 | [CF]2 (3GAG [CF]4 | F2 (3AGF _d2 c2 | [FA]2 [FB]2 [=Ec]4 | %12
w: ||||
 [CEc]2 (3cBA [C=Ec]2 [CEG]2 | [CFA]2 (3AGF [=B,FA]4 | [CE]2 (3EDE [DF]2 [Dc]2 | [_DB]4 [CA]4- | %16
w: ||||
 [CA]4 z4 |] %17
w: |
V:2
 x8 | x8 | x8 | x8 | z2 [CE]2 z4 | z2 C2 z4 | x8 | x8 | x8 | z2 [C=E]2 z4 | x8 | x8 | z2 [CE]2 z4 | %13
 x8 | x8 | x8 | x8 |] %17
V:3
 A,2 (3A,G,F, E,2 C,2 | [A,,A,]2 [G,,G,]2 [F,,F,]4 | F,2 (3F,G,A, B,2 F,2 | %3
 [E,,E,]2 [F,,F,]2 [G,,G,]4 | [A,,A,]2 [A,,A,]2 [G,,G,]2 [G,,G,]2 | [F,,F,]2 [F,,F,]2 [D,,D,]4 | %6
 [E,A,]2 [C,A,]2 [B,,A,]2 [B,,A,]2 | [E,G,]4 [A,,E,]4 | C2 (3CB,A, G,2 C,2 | %9
 [C,A,]2 [C,B,]2 [F,A,]4 | F,2 (3A,G,F, _D2 C2 | [_D,A,]2 [D,A,]2 [C,G,]4 | %12
 [A,,A,]2 [A,,A,]2 [G,,G,]2 [G,,G,]2 | [F,,F,]2 [F,,F,]2 [D,,D,]4 | %14
 [E,A,]2 [C,A,]2 [B,,A,]2 [B,,A,]2 | [E,G,]4 [A,,E,]4- | [A,,E,]4 z4 |] %17

